src/assets/img/agro/agro_back.svg

<svg width="423" height="625" fill="none" xmlns="http://www.w3.org/2000/svg"><path fill-rule="evenodd" clip-rule="evenodd" d="M182.441 224.234c-4.6-5.904-10.388-11.118-16.024-16.007-8.867-7.691-18.053-14.991-26.542-23.102-8.751-8.374-16.963-17.755-22.291-28.727-1.712-3.515-3.113-7.187-4.127-10.968-6.334-23.64 8.748-55.118 16.637-77.293 2.333-6.546 5.966-12.444 6.571-19.497l.981-11.512 6.691 9.424c4.372 6.165 10.926 11.611 16.765 16.346 8.587 6.969 17.467 13.567 25.664 21.012 8.676 7.869 16.881 16.88 21.909 27.573 2.292 4.888 3.873 10.047 4.565 15.403 1.857 14.281-3.214 35.488-6.978 49.467-3.081 11.425-6.684 22.737-10.958 33.77-1.751 4.509-3.562 9.087-5.74 13.412l-3.009 5.976-4.114-5.277zm90.065 366.603l-110.061-23.284-.348-.132c-11.206-4.512-20.88-10.812-28.432-20.377-8.297-10.515-12.912-23.532-16.551-36.272-4.23-14.794-7.511-29.837-11.295-44.751l-1.702-6.7 6.737 1.524c14.904 3.363 29.843 6.556 44.789 9.728 12.5 2.657 25.022 5.249 37.422 8.373 14.973 3.769 32.066 8.638 43.571 19.463 9.164 8.628 14.416 20.457 18.578 32.127 3.04 8.521 5.568 17.213 8.009 25.929 2.581 9.209 5.039 18.458 7.504 27.706l1.779 6.666zm-43.934-265.049c-3.111-11.633-6.19-23.273-9.032-34.971-2.345-9.665-4.578-19.386-6.094-29.226-1.837-11.908-2.856-24.845 2.148-36.153 4.91-11.11 15.618-20.539 24.51-28.549 7.171-6.46 14.417-12.841 21.502-19.397a643.611 643.611 0 0028.007-27.532c4.917-5.145 9.58-9.924 15.532-13.878l4.915-3.269 1.523 5.705c3.023 11.31 6.012 22.636 8.762 34.013 2.323 9.611 4.515 19.277 6 29.053 1.883 12.399 2.798 25.617-2.138 37.451-4.883 11.708-15.216 21.394-24.464 29.759-7.137 6.465-14.453 12.731-21.682 19.1-9.642 8.504-19.159 17.154-28.463 26.026-4.944 4.721-8.871 10.046-14.405 14.174l-5.01 3.734-1.611-6.04zm67.42 251.639c-2.583-9.588-5.173-19.18-7.644-28.798-2.294-8.934-4.518-17.9-6.186-26.975-2.238-12.165-3.674-25.123.119-37.137 4.665-14.772 17.285-27.265 28.287-37.675 9.241-8.736 18.805-17.112 28.307-25.566 11.379-10.119 22.708-20.298 33.9-30.619l5.081-4.678 1.87 6.656c4.291 15.27 9.064 30.411 12.723 45.85 3.186 13.473 5.52 27.778 2.954 41.549-2.168 11.639-7.582 21.489-15.626 30.807l-82 73.225-1.785-6.639zm-64.593-116.089c-16.251-3.659-32.544-7.154-48.69-11.261-9.319-2.373-18.679-4.577-28.053-6.757-7.095-1.647-14.208-3.263-21.252-5.143-9.511-2.542-19.702-5.692-27.399-12.088-9.232-7.667-14.182-19.63-18.043-30.696-3.21-9.18-5.86-18.551-8.455-27.916-2.992-10.794-5.852-21.616-8.737-32.432l-1.817-6.81 55.496 12.846c17.01 3.941 34.223 7.456 50.86 12.826 10.137 3.271 20.302 7.465 28.111 14.968 8.891 8.549 13.739 20.552 17.591 32.033 2.919 8.713 5.374 17.578 7.769 26.445 2.593 9.578 5.098 19.173 7.64 28.758l1.79 6.757-6.811-1.53zM198.88 337.897c-9.717-.912-19.635-3.763-29.068-6.213-7.064-1.828-14.13-3.716-21.279-5.169-16.886-3.43-34-6.545-50.461-11.683-10.056-3.14-20.065-7.27-27.72-14.747-8.78-8.579-13.506-20.695-17.232-32.149-2.823-8.68-5.191-17.494-7.535-26.315-2.502-9.436-4.95-18.894-7.447-28.338l-1.783-6.753 109.502 24.636c33.28 10.818 43.672 43.312 51.092 74.024 2.205 9.144 4.163 18.333 6.436 27.459l1.443 5.807-5.948-.559zm62.767 111.528c-4.273-15.155-9.06-30.173-12.788-45.474-3.227-13.229-5.659-27.282-3.312-40.855 2.112-12.195 7.827-22.431 15.842-31.709 4.54-5.263 9.723-10.008 14.727-14.83 8.119-7.824 16.365-15.522 24.695-23.13 8.77-8.018 17.623-15.952 26.725-23.6 3.567-3.003 7.15-6.043 10.916-8.8l4.981-3.64 1.608 5.975c2.676 9.961 5.358 19.921 7.883 29.916 2.257 8.944 4.422 17.913 6.021 27 2.177 12.308 3.455 25.322-.425 37.432-4.776 14.902-17.299 27.433-28.384 37.979-9.168 8.716-18.666 17.063-28.1 25.478-11.219 9.996-22.4 20.035-33.441 30.224l-5.074 4.682-1.874-6.648zm-83.516-274.279l.001-.266c.033-1.61.636-3.472 1.066-5.036.753-2.76 1.556-5.507 2.273-8.277 1.92-7.366 3.33-14.927 3.395-22.559.175-22.195-11.423-36.616-31.7-44.506l-.126-.047-.085.103c-19.1 23.81-15.627 47.466 5.443 68.539 8.055 8.055 7.222 12.073 19.554 12.051l.179-.002zm-33.955 323.039l.06.223c3.03 11.308 6.988 27.691 15.889 35.805 5.371 4.894 12.376 7.123 19.355 8.535 17.938 3.64 35.658 8.228 53.491 12.321l.289.062-.076-.285c-2.921-10.899-6.645-26.754-14.806-34.906-5.378-5.364-12.835-8.116-19.974-10.224-8.657-2.551-17.491-4.55-26.289-6.538-5.543-1.252-11.098-2.449-16.682-3.484-3.47-.646-7.509-1.51-11.024-1.505l-.233-.004zm101.158-220.626l.191-.105c3.342-1.786 6.58-4.334 9.567-6.656 4.34-3.383 8.561-6.918 12.725-10.513a385.718 385.718 0 0011.978-10.778c2.809-2.64 5.643-5.307 8.181-8.213 4.721-5.405 9.236-11.406 11.064-18.474 2.801-10.884-1.278-25.094-4.122-35.708l-.058-.217-.204.107c-14.063 7.503-30.322 25.077-41.451 36.724-5.083 5.316-11.134 11.821-12.992 19.124-2.451 9.667 2.513 24.975 5.063 34.492l.058.217zM362.59 439.668l-.203.107c-2.919 1.56-6.167 4.517-8.713 6.674-4.449 3.771-8.792 7.665-13.107 11.592-6.637 6.051-13.243 12.147-19.647 18.448-5.409 5.317-11.034 11.555-12.843 19.137-2.536 10.614 2.971 27.179 5.765 37.607l.078.292 40.225-37.711c5.178-5.135 10.156-10.941 12.349-18.034 3.508-11.366-.852-26.723-3.846-37.896l-.058-.216zm-253.549-72.609l.075.279c2.882 10.757 6.43 27.268 14.236 35.456 5.359 5.615 12.938 8.276 20.275 10.157 8.668 2.223 17.393 4.211 26.136 6.114 5.629 1.23 11.274 2.415 16.944 3.447 3.522.644 7.605 1.498 11.178 1.49l.24.003-.06-.223c-3.206-11.966-7.503-27.407-17.19-35.782-6.872-5.94-16.404-8.662-25.058-10.782-15.402-3.781-31.036-6.549-46.488-10.097l-.288-.062zm-32.594-121.64l.058.216c2.952 11.017 6.825 26.831 15.432 34.791 5.451 5.045 12.854 7.52 19.897 9.394 8.556 2.273 17.233 4.128 25.926 5.825 5.048.987 10.114 1.896 15.206 2.604 3.727.517 7.712 1.056 11.48.93l.23-.007-.058-.218c-2.844-10.614-6.554-25.919-14.801-33.624-5.722-5.338-13.762-7.689-21.22-9.378-6.877-1.553-13.674-3.426-20.505-5.177-9.559-2.45-21.56-5.694-31.415-5.365l-.23.009zm202.351 157.03l.213-.197c10.783-10.04 22.251-19.279 33.424-28.878 6.53-5.61 13.808-12.092 17.406-20.08 5.899-13.09 1.235-31.236-2.313-44.479l-.075-.279-.213.196c-13.389 12.465-26.45 25.295-40.164 37.415-5.338 4.713-10.29 10.146-12.495 17.07-3.657 11.479 1.112 27.644 4.142 38.952l.075.28z" fill="#0B582C" fill-opacity=".2"/></svg>

<svg width="423" height="625" viewBox="0 0 423 625" fill="none" xmlns="http://www.w3.org/2000/svg">
<path fill-rule="evenodd" clip-rule="evenodd" d="M182.441 224.234C177.841 218.33 172.053 213.116 166.417 208.227C157.55 200.536 148.364 193.236 139.875 185.125C131.124 176.751 122.912 167.37 117.584 156.398C115.872 152.883 114.471 149.211 113.457 145.43C107.123 121.79 122.205 90.3116 130.094 68.1366C132.427 61.591 136.06 55.693 136.665 48.6402L137.646 37.1276L144.337 46.5519C148.709 52.7165 155.263 58.1634 161.102 62.8982C169.689 69.867 178.569 76.4647 186.766 83.91C195.442 91.7787 203.647 100.79 208.675 111.483C210.967 116.371 212.548 121.53 213.24 126.886C215.097 141.167 210.026 162.374 206.262 176.353C203.181 187.778 199.578 199.09 195.304 210.123C193.553 214.632 191.742 219.21 189.564 223.535L186.555 229.511L182.441 224.234ZM272.506 590.837L162.445 567.553L162.097 567.421C150.891 562.909 141.217 556.609 133.665 547.044C125.368 536.529 120.753 523.512 117.114 510.772C112.884 495.978 109.603 480.935 105.819 466.021L104.117 459.321L110.854 460.845C125.758 464.208 140.697 467.401 155.643 470.573C168.143 473.23 180.665 475.822 193.065 478.946C208.038 482.715 225.131 487.584 236.636 498.409C245.8 507.037 251.052 518.866 255.214 530.536C258.254 539.057 260.782 547.749 263.223 556.465C265.804 565.674 268.262 574.923 270.727 584.171L272.506 590.837ZM228.572 325.788C225.461 314.155 222.382 302.515 219.54 290.817C217.195 281.152 214.962 271.431 213.446 261.591C211.609 249.683 210.59 236.746 215.594 225.438C220.504 214.328 231.212 204.899 240.104 196.889C247.275 190.429 254.521 184.048 261.606 177.492C271.217 168.597 280.566 159.421 289.613 149.96C294.53 144.815 299.193 140.036 305.145 136.082L310.06 132.813L311.583 138.518C314.606 149.828 317.595 161.154 320.345 172.531C322.668 182.142 324.86 191.808 326.345 201.584C328.228 213.983 329.143 227.201 324.207 239.035C319.324 250.743 308.991 260.429 299.743 268.794C292.606 275.259 285.29 281.525 278.061 287.894C268.419 296.398 258.902 305.048 249.598 313.92C244.654 318.641 240.727 323.966 235.193 328.094L230.183 331.828L228.572 325.788ZM295.992 577.427C293.409 567.839 290.819 558.247 288.348 548.629C286.054 539.695 283.83 530.729 282.162 521.654C279.924 509.489 278.488 496.531 282.281 484.517C286.946 469.745 299.566 457.252 310.568 446.842C319.809 438.106 329.373 429.73 338.875 421.276C350.254 411.157 361.583 400.978 372.775 390.657L377.856 385.979L379.726 392.635C384.017 407.905 388.79 423.046 392.449 438.485C395.635 451.958 397.969 466.263 395.403 480.034C393.235 491.673 387.821 501.523 379.777 510.841L297.777 584.066L295.992 577.427ZM231.399 461.338C215.148 457.679 198.855 454.184 182.709 450.077C173.39 447.704 164.03 445.5 154.656 443.32C147.561 441.673 140.448 440.057 133.404 438.177C123.893 435.635 113.702 432.485 106.005 426.089C96.7732 418.422 91.8229 406.459 87.9623 395.393C84.7528 386.213 82.1026 376.842 79.507 367.477C76.5153 356.683 73.6552 345.861 70.7704 335.045L68.9526 328.235L124.449 341.081C141.459 345.022 158.672 348.537 175.309 353.907C185.446 357.178 195.611 361.372 203.42 368.875C212.311 377.424 217.159 389.427 221.011 400.908C223.93 409.621 226.385 418.486 228.78 427.353C231.373 436.931 233.878 446.526 236.42 456.111L238.21 462.868L231.399 461.338ZM198.88 337.897C189.163 336.985 179.245 334.134 169.812 331.684C162.748 329.856 155.682 327.968 148.533 326.515C131.647 323.085 114.533 319.97 98.0715 314.832C88.0161 311.692 78.0072 307.562 70.3518 300.085C61.5721 291.506 56.8462 279.39 53.1203 267.936C50.2972 259.256 47.9289 250.442 45.5852 241.621C43.0832 232.185 40.6353 222.727 38.1378 213.283L36.355 206.53L145.857 231.166C179.137 241.984 189.529 274.478 196.949 305.19C199.154 314.334 201.112 323.523 203.385 332.649L204.828 338.456L198.88 337.897ZM261.647 449.425C257.374 434.27 252.587 419.252 248.859 403.951C245.632 390.722 243.2 376.669 245.547 363.096C247.659 350.901 253.374 340.665 261.389 331.387C265.929 326.124 271.112 321.379 276.116 316.557C284.235 308.733 292.481 301.035 300.811 293.427C309.581 285.409 318.434 277.475 327.536 269.827C331.103 266.824 334.686 263.784 338.452 261.027L343.433 257.387L345.041 263.362C347.717 273.323 350.399 283.283 352.924 293.278C355.181 302.222 357.346 311.191 358.945 320.278C361.122 332.586 362.4 345.6 358.52 357.71C353.744 372.612 341.221 385.143 330.136 395.689C320.968 404.405 311.47 412.752 302.036 421.167C290.817 431.163 279.636 441.202 268.595 451.391L263.521 456.073L261.647 449.425ZM178.131 175.146L178.132 174.88C178.165 173.27 178.768 171.408 179.198 169.844C179.951 167.084 180.754 164.337 181.471 161.567C183.391 154.201 184.801 146.64 184.866 139.008C185.041 116.813 173.443 102.392 153.166 94.502L153.04 94.4554L152.955 94.5584C133.855 118.368 137.328 142.024 158.398 163.097C166.453 171.152 165.62 175.17 177.952 175.148L178.131 175.146ZM144.176 498.185L144.236 498.408C147.266 509.716 151.224 526.099 160.125 534.213C165.496 539.107 172.501 541.336 179.48 542.748C197.418 546.388 215.138 550.976 232.971 555.069L233.26 555.131L233.184 554.846C230.263 543.947 226.539 528.092 218.378 519.94C213 514.576 205.543 511.824 198.404 509.716C189.747 507.165 180.913 505.166 172.115 503.178C166.572 501.926 161.017 500.729 155.433 499.694C151.963 499.048 147.924 498.184 144.409 498.189L144.176 498.185ZM245.334 277.559L245.525 277.454C248.867 275.668 252.105 273.12 255.092 270.798C259.432 267.415 263.653 263.88 267.817 260.285C271.884 256.77 275.879 253.188 279.795 249.507C282.604 246.867 285.438 244.2 287.976 241.294C292.697 235.889 297.212 229.888 299.04 222.82C301.841 211.936 297.762 197.726 294.918 187.112L294.86 186.895L294.656 187.002C280.593 194.505 264.334 212.079 253.205 223.726C248.122 229.042 242.071 235.547 240.213 242.85C237.762 252.517 242.726 267.825 245.276 277.342L245.334 277.559ZM362.59 439.668L362.387 439.775C359.468 441.335 356.22 444.292 353.674 446.449C349.225 450.22 344.882 454.114 340.567 458.041C333.93 464.092 327.324 470.188 320.92 476.489C315.511 481.806 309.886 488.044 308.077 495.626C305.541 506.24 311.048 522.805 313.842 533.233L313.92 533.525L354.145 495.814C359.323 490.679 364.301 484.873 366.494 477.78C370.002 466.414 365.642 451.057 362.648 439.884L362.59 439.668ZM109.041 367.059L109.116 367.338C111.998 378.095 115.546 394.606 123.352 402.794C128.711 408.409 136.29 411.07 143.627 412.951C152.295 415.174 161.02 417.162 169.763 419.065C175.392 420.295 181.037 421.48 186.707 422.512C190.229 423.156 194.312 424.01 197.885 424.002L198.125 424.005L198.065 423.782C194.859 411.816 190.562 396.375 180.875 388C174.003 382.06 164.471 379.338 155.817 377.218C140.415 373.437 124.781 370.669 109.329 367.121L109.041 367.059ZM76.4473 245.419L76.5054 245.635C79.4574 256.652 83.3299 272.466 91.9372 280.426C97.3885 285.471 104.791 287.946 111.834 289.82C120.39 292.093 129.067 293.948 137.76 295.645C142.808 296.632 147.874 297.541 152.966 298.249C156.693 298.766 160.678 299.305 164.446 299.179L164.676 299.172L164.618 298.954C161.774 288.34 158.064 273.035 149.817 265.33C144.095 259.992 136.055 257.641 128.597 255.952C121.72 254.399 114.923 252.526 108.092 250.775C98.5334 248.325 86.5329 245.081 76.6771 245.41L76.4473 245.419ZM278.798 402.449L279.011 402.252C289.794 392.212 301.262 382.973 312.435 373.374C318.965 367.764 326.243 361.282 329.841 353.294C335.74 340.204 331.076 322.058 327.528 308.815L327.453 308.536L327.24 308.732C313.851 321.197 300.79 334.027 287.076 346.147C281.738 350.86 276.786 356.293 274.581 363.217C270.924 374.696 275.693 390.861 278.723 402.169L278.798 402.449Z" fill="#0B582C" fill-opacity="0.2"/>
</svg>
